icon_installer/data/icons/scalable/actions/show-town-symbolic.svg

<?xml version="1.0" encoding="UTF-8"?>
<svg height="16px" viewBox="0 0 16 16" width="16px" xmlns="http://www.w3.org/2000/svg">
    <path d="m 12 4 l -2 2 v 3.800781 l -2 -2 l -2 2 v 1.199219 l -1.445312 -1 l -1.554688 1 v 3.972656 h -3 v 1.027344 h 16 v -1.027344 h -2 v -8.972656 z m 0 2.8125 c 0.65625 0 1.1875 0.53125 1.1875 1.1875 s -0.53125 1.1875 -1.1875 1.1875 s -1.1875 -0.53125 -1.1875 -1.1875 s 0.53125 -1.1875 1.1875 -1.1875 z m -5 4.1875 h 2 v 1 h -2 z m -3 1 h 1 v 1 h -1 z m 0 0" fill="#222222"/>
</svg>

<svg xmlns="http://www.w3.org/2000/svg" width="16" height="16"><path fill="#222" d="m12 4-2 2v3.8l-2-2-2 2V11l-1.445-1L3 11v3.973H0V16h16v-1.027h-2V6zm0 2.813a1.187 1.187 0 1 1 .001 2.373A1.187 1.187 0 0 1 12 6.813zM7 11h2v1H7zm-3 1h1v1H4zm0 0"/></svg>
